!!!ONB: MCCC : IFC0052_01 : Extracted Monophonic Melody
!!!COM: Chopin, Frédéric
!!!OPR: Mazurkas
!!!OMV: 1
!!!SCT: Op.33
!!!ODT: 1837///
**kern
*thru
*staff1
*Ipiano
*>A
*clefG2
*k[b-e-]
*B-:
*M3/4
*MM160
4f
=1
4.ff
8ee
8ff
8ee
=2
8ff
16r
16b-
4ee-
4dd
=3
4.cc
8ee-
8dd
8cc
=4
8dd
16r
16f
4b-
4dd
=5
8ff
16r
16ff
4ff
8ff
8ee
=6
8ff
16r
16b-
4ee-
4dd
=7
4.cc
8ee-
8dd
8cc
=8
8dd
16r
16f
4b-
4dd
=9
4c
4.bb-
8aa
=10
8.ff#
16gg
4aa
4gg
=11
4c
4.aa
8gg
=12
8ff
16r
16dd
4cc
4ff
=13
4c
4.bb-
8aa
=14
8.ff#
16gg
4aa
4gg
=15
8ccc
16r
16ff
4bb-
4ee-
=16
8aa-
16r
16dd
4gg
4cc
=17
4.ff
8gg
8ff
8ee
=18
8ff
16r
16b-
4ee-
4dd
=19
4.cc
8ee-
8dd
8cc
=20
8dd
16r
16f
4b-
4dd
=21
4.ff
8gg
8ff
8ee
=22
8ff
16r
16b
4ee-
4dd
=23
4.cc
8ee-
8dd
8cc
=24
8dd
16r
16cc
4b-
4bb-
=25
4c
4.bb-
8aa
=26
8.ff#
16gg
4aa
4gg
=27
4c
4.aa
8gg
=28
8ff
16r
16dd
4cc
4ff
=29
4c
4.bb-
8aa
=30
8.ff#
16gg
4aa
4gg
=31
8ccc
16r
16ff
4bb-
4ee-
=32
8aa-
16r
16dd
4gg
4cc
=33
4.ff
8gg
8ff
8ee
=34
8ff
16r
16b-
4ee-
4dd
=35
4.cc
8ee-
8dd
8cc
=36
8dd
16r
16f
4b-
4dd
=37
4.ff
8gg
8ff
8ee
=38
8ff
16r
16b
4ee-
4dd
=39
4.cc
8ee-
8dd
8cc
=40
8dd
16r
16cc
4b-
4bb-
=41
*>B
*k[b-e-a-]
2.r
=42
2.r
=43
2.r
=44
2.r
=45
8g
16r
16a-
4.gg
8ff
=46
8ee
8ff
4aa-
4ccc
=47
8g
16r
16a-
4.gg
8ff
=48
8ee-
16r
16cc
4a
4b-
=49
8g
8a-
4.gg
8ff
=50
8ee
8ff
4aa-
4fff
=51
4bb
8bb-
8gg
4bb-
=52
8aa
8ff#
4aa
8aa-
8ff
=53
8g
16r
16a-
4.gg
8ff
=54
8ee
8ff
4aa-
4ccc
=55
8g
16r
16a-
4.gg
8ff
=56
8ee-
16r
16cc
4a
4b-
=57
8g
8a-
4.gg
8ff
=58
8ee
8ff
4aa-
*8va
8ffff
*X8va
8r
=59
8ccc
8bb
8bb-
8aa
8aa-
8b-
=60
8ff
16r
16gg
4ee-
*>A
*k[b-e-]
*M3/4
4f
=61
4.ff
8ee
8ff
8ee
=62
8ff
16r
16b-
4ee-
4dd
=63
4.cc
8ee-
8dd
8cc
=64
8dd
16r
16f
4b-
4dd
=65
8ff
16r
16ff
4ff
8ff
8ee
=66
8ff
16r
16b-
4ee-
4dd
=67
4.cc
8ee-
8dd
8cc
=68
8dd
16r
16f
4b-
4dd
=69
4c
4.bb-
8aa
=70
8.ff#
16gg
4aa
4gg
=71
4c
4.aa
8gg
=72
8ff
16r
16dd
4cc
4ff
=73
4c
4.bb-
8aa
=74
8.ff#
16gg
4aa
4gg
=75
8ccc
16r
16ff
4bb-
4ee-
=76
8aa-
16r
16dd
4gg
4cc
=77
4.ff
8gg
8ff
8ee
=78
8ff
16r
16b-
4ee-
4dd
=79
4.cc
8ee-
8dd
8cc
=80
8dd
16r
16f
4b-
4dd
=81
4.ff
8gg
8ff
8ee
=82
8ff
16r
16b
4ee-
4dd
=83
4.cc
8ee-
8dd
8cc
=84
8dd
16r
16cc
4b-
4bb-
=85
4c
4.bb-
8aa
=86
8.ff#
16gg
4aa
4gg
=87
4c
4.aa
8gg
=88
8ff
16r
16dd
4cc
4ff
=89
4c
4.bb-
8aa
=90
8.ff#
16gg
4aa
4gg
=91
8ccc
16r
16ff
4bb-
4ee-
=92
8aa-
16r
16dd
4gg
4cc
=93
4.ff
8gg
8ff
8ee
=94
8ff
16r
16b-
4ee-
4dd
=95
4.cc
8ee-
8dd
8cc
=96
8dd
16r
16f
4b-
4dd
=97
4.ff
8gg
8ff
8ee
=98
8ff
16r
16b
4ee-
4dd
=99
4.cc
8ee-
8dd
8cc
=100
8dd
16r
16cc
4b-
4bb-
==
*-
